cssgg/select-o.svg

<svg
  width="24"
  height="24"
  viewBox="0 0 24 24"
  fill="none"
  xmlns="http://www.w3.org/2000/svg"
>
  <path
    d="M9.17154 11.508L7.75732 10.0938L12 5.85114L16.2426 10.0938L14.8284 11.508L12 8.67956L9.17154 11.508Z"
    fill="currentColor"
  />
  <path
    d="M9.17154 12.492L7.75732 13.9062L12 18.1489L16.2426 13.9062L14.8284 12.492L12 15.3204L9.17154 12.492Z"
    fill="currentColor"
  />
  <path
    fill-rule="evenodd"
    clip-rule="evenodd"
    d="M23 12C23 18.0751 18.0751 23 12 23C5.92487 23 1 18.0751 1 12C1 5.92487 5.92487 1 12 1C18.0751 1 23 5.92487 23 12ZM21 12C21 16.9706 16.9706 21 12 21C7.02944 21 3 16.9706 3 12C3 7.02944 7.02944 3 12 3C16.9706 3 21 7.02944 21 12Z"
    fill="currentColor"
  />
</svg>

<svg viewBox="0 0 24 24" xmlns="http://www.w3.org/2000/svg"><g><path d="M9.17 11.508l-1.42-1.42 4.24-4.25 4.24 4.24 -1.42 1.41 -2.83-2.83 -2.83 2.82Z"/><path d="M9.17 12.492L7.75 13.9l4.24 4.24 4.24-4.25 -1.42-1.42 -2.83 2.82 -2.83-2.83Z"/><path fill-rule="evenodd" d="M23 12c0 6.07-4.93 11-11 11C5.92 23 1 18.07 1 12 1 5.92 5.92 1 12 1c6.07 0 11 4.92 11 11Zm-2 0c0 4.97-4.03 9-9 9 -4.98 0-9-4.03-9-9 0-4.98 4.02-9 9-9 4.97 0 9 4.02 9 9Z"/></g></svg>
